X: 1
T: Counselor's
M: 6/8
L: 1/8
R: jig
K: Gmaj
|: D | GBd cAc | BGB def | gdB cAc | BGB AFD |
GB/c/d cA/B/c | BGB def | gdB cAc | BGF G2 :|
|: f | gag fef | gdB GB/c/d | gag fef | dd/e/f g2 a |
bgb afa | gfe dBG |[1 GBd cBA | BGG G2 :|[2 GB/c/d cAc | BGF G2 |]
